X:1
T: The Auld Kirk
C:
R:Strathspey
Q:128
K:G
M:4/4
L:1/16
|:g3e d3B ce3 d4|c3B A3G FA3 FD3|g3f e3d eg3 d4|cA3 d3B G6d2|
g3e d3B ce3 d4|c3B A3G FA3 FD3|g3f e3d eg3 d4|cA3 d3B G6d2|
BG3 G3A Bd3 d3B|c3B A3G FA3 FD3|BG3 G3A Bd3 dg3|cA3 d3B G6d2|
BG3 G3A Bd3 d3B|c3B A3G FA3 FD3|BG3 G3A Bd3 dg3|((3e2f2g2) ((3f2g2a2) g6:|
